!!!OTL: Graf und Nonne (Die Nonne) Steig' hinauf auf hohe Berge,
!!!ARE: Europa, Mitteleuropa, Deutschland (BRD), Wuerttemberg, Lauingen
!!!YOR: 8, S. 65
!!    1921 aufgezeichnet
!!!SCT: Q0155Q
!!!YEM: Copyright 1995, estate of Helmut Schaffrath.
**kern
*ICvox
*Ivox
!! Mixed meters:  3/4; 6/8; 2/4
*M3/4
*k[]
*C:
{8.G
16G
=1
4c
4e
8d
8c
*M6/8
=2
*M2/4
4d
4f}
=3
{8.d
16d
=4
*M6/8
4e
4e
8g
8e
=5
*M2/4
2d}
=6
{8c
8e
=7
*M6/8
4g
8g
8g
8f
8e
=8
*M2/4
8e
8d
8r}
{8G
=9
*M6/8
8G
8B
8d
8a
8g
8f
=10
2e}
==
!!!AGN: Ballade, Standesunterschied, vergebliche Werbung, Liebe, Klage
!! Grundton in der zweigestrichenen Oktave.
!!!ONB: ESAC (Essen Associative Code) Database: BALLADE
!!!AMT: irregular
!!!AIN: vox
!!!EED: Helmut Schaffrath
!!!EEV: 1.0
*-
